source/img/services/services-nav/seo-icon.svg

<svg width="33" height="33" viewBox="0 0 33 33" fill="none" xmlns="http://www.w3.org/2000/svg">
<g clip-path="url(#clip0)">
<path d="M20.2528 21.8L19.1509 20.6982L20.2661 19.3623L21.1476 20.2438L22.034 20.2389L27.5422 25.9697L25.3142 28.1978L19.806 22.467L20.2528 21.8Z" fill="#AAAAAA"/>
<path fill-rule="evenodd" clip-rule="evenodd" d="M13.9209 8.07475C10.582 8.10725 7.85631 10.8488 7.83298 14.1982C7.80965 17.5476 10.4975 20.2365 13.8364 20.204C17.1754 20.1715 19.901 17.4299 19.9244 14.0805C19.9326 12.9008 19.6049 11.8042 19.0312 10.8791C18.9164 10.694 18.9745 10.448 19.161 10.3298C19.3474 10.2116 19.5916 10.2658 19.7064 10.4509C20.3557 11.498 20.7265 12.7397 20.7173 14.0728C20.6909 17.8615 17.6077 20.9626 13.8309 20.9993C10.0541 21.0361 7.01371 17.9946 7.0401 14.2059C7.0665 10.4173 10.1496 7.31615 13.9265 7.2794C15.3414 7.26563 16.654 7.68431 17.7401 8.41269C17.9208 8.53381 17.9668 8.78054 17.8431 8.96376C17.7193 9.14699 17.4725 9.19733 17.2919 9.07621C16.3321 8.43254 15.1728 8.06257 13.9209 8.07475Z" fill="#0A3D76"/>
<path fill-rule="evenodd" clip-rule="evenodd" d="M13.8244 21.7953C18.0391 21.7544 21.4797 18.2937 21.5091 14.0658C21.5385 9.83791 18.1456 6.44372 13.9308 6.48469C9.71611 6.52566 6.27555 9.98627 6.24614 14.2142C6.23579 15.7031 6.64949 17.0876 7.37371 18.2555C7.48848 18.4406 7.43038 18.6865 7.24392 18.8047C7.05746 18.923 6.81326 18.8688 6.69848 18.6837C5.89862 17.3938 5.44184 15.8642 5.45326 14.2219C5.48572 9.55471 9.28374 5.73456 13.9364 5.68933C18.589 5.6441 22.3344 9.39094 22.3019 14.0581C22.2695 18.7253 18.4715 22.5455 13.8188 22.5907C12.0757 22.6076 10.4588 22.0919 9.12086 21.1946C8.94025 21.0735 8.89417 20.8267 9.01794 20.6435C9.14172 20.4603 9.38847 20.41 9.56908 20.5311C10.7807 21.3436 12.2442 21.8107 13.8244 21.7953Z" fill="#0A3D76"/>
<path fill-rule="evenodd" clip-rule="evenodd" d="M20.2116 18.8634L21.3891 20.0446L21.6839 19.9999C22.1169 19.9342 22.552 20.0764 22.8584 20.3837L27.445 24.9848C27.7513 25.292 27.893 25.7284 27.8277 26.1626L27.8029 26.3268C27.758 26.6253 27.618 26.9027 27.4039 27.1175L26.6031 27.9209C26.389 28.1356 26.1125 28.276 25.8149 28.3211L25.6512 28.3459C25.2183 28.4115 24.7834 28.2693 24.4771 27.9621L19.8903 23.3609C19.5841 23.0536 19.4423 22.6173 19.5077 22.1831L19.5522 21.8875L18.3745 20.7066L20.2116 18.8634ZM20.3461 21.9277L20.2917 22.289C20.2637 22.4751 20.3244 22.6621 20.4557 22.7938L25.0424 27.395C25.1737 27.5266 25.3601 27.5876 25.5456 27.5595L25.7093 27.5347C25.8368 27.5154 25.9554 27.4552 26.0471 27.3631L26.848 26.5598C26.9397 26.4677 26.9997 26.3488 27.019 26.2209L27.0437 26.0567C27.0717 25.8706 27.011 25.6836 26.8797 25.5519L22.293 20.9508C22.1618 20.8191 21.9753 20.7582 21.7897 20.7863L21.4293 20.841L20.3461 21.9277ZM20.6849 20.4724L20.2023 19.9883L19.4959 20.6971L19.9785 21.181L20.6849 20.4724Z" fill="#0A3D76"/>
</g>
<defs>
<clipPath id="clip0">
<rect width="32" height="32" fill="white" transform="translate(0.726562 0.997559)"/>
</clipPath>
</defs>
</svg>

<svg width="33" height="33" fill="none" xmlns="http://www.w3.org/2000/svg"><g clip-path="url(#clip0)"><path d="M20.253 21.8l-1.102-1.102 1.115-1.336.882.882.886-.005 5.508 5.73-2.228 2.229-5.508-5.731.447-.667z" fill="#AAA"/><path fill-rule="evenodd" clip-rule="evenodd" d="M13.92 8.075c-3.338.032-6.064 2.774-6.087 6.123a5.935 5.935 0 006.003 6.006c3.34-.032 6.065-2.774 6.088-6.123a5.97 5.97 0 00-.893-3.202.402.402 0 01.13-.55.392.392 0 01.545.122 6.759 6.759 0 011.011 3.622c-.026 3.788-3.11 6.89-6.886 6.926a6.713 6.713 0 01-6.79-6.793c.025-3.789 3.109-6.89 6.886-6.927a6.702 6.702 0 013.813 1.134c.18.12.227.368.103.55a.399.399 0 01-.551.113 5.922 5.922 0 00-3.371-1.001z" fill="#0A3D76"/><path fill-rule="evenodd" clip-rule="evenodd" d="M13.824 21.795c4.215-.04 7.656-3.501 7.685-7.73a7.491 7.491 0 00-7.578-7.58c-4.215.04-7.655 3.501-7.685 7.73a7.538 7.538 0 001.128 4.04.402.402 0 01-.13.55.392.392 0 01-.546-.121 8.325 8.325 0 01-1.245-4.462c.033-4.667 3.83-8.487 8.483-8.533a8.27 8.27 0 018.366 8.37c-.032 4.666-3.83 8.487-8.483 8.532a8.256 8.256 0 01-4.698-1.396.396.396 0 01-.103-.552.399.399 0 01.551-.112 7.476 7.476 0 004.255 1.264z" fill="#0A3D76"/><path fill-rule="evenodd" clip-rule="evenodd" d="M20.212 18.863l1.177 1.182.295-.045c.433-.066.868.076 1.174.384l4.587 4.6c.306.308.448.744.383 1.179l-.025.164a1.42 1.42 0 01-.4.79l-.8.804c-.214.215-.49.355-.788.4l-.164.025a1.366 1.366 0 01-1.174-.384l-4.587-4.601a1.376 1.376 0 01-.382-1.178l.044-.296-1.177-1.18 1.837-1.844zm.134 3.065l-.054.361a.59.59 0 00.164.505l4.586 4.601a.586.586 0 00.504.165l.163-.025a.605.605 0 00.338-.172l.801-.803a.61.61 0 00.171-.34l.025-.163a.59.59 0 00-.164-.505l-4.587-4.601a.585.585 0 00-.503-.165l-.36.055-1.084 1.087zm.339-1.456l-.483-.484-.706.71.483.483.706-.709z" fill="#0A3D76"/></g><defs><clipPath id="clip0"><path fill="#fff" transform="translate(.727 .998)" d="M0 0h32v32H0z"/></clipPath></defs></svg>
